X:2529
T:Cantar de Navidá (CT 269)
R:Navidá
C:Tradicional
S:Música Tradicional Asturiana, (C) Tello & Tito. Asturies, 2001.
S:http://pagina.de/MusTradAst <telloytito@asturies.org>
N:Canción de Navidad, transcrita en Uviéu.
O:Uviéu
A:Asturies
Z:Cancioneru de Torner 269
M:3/8
L:1/8
Q:3/8=60
W:Esta noche, caballeros,
W:es noche de Navidad;
W:parió La Virgen María,
W:parió en un pobre portal.
W:
W:A los amos de esta casa
W:venimos a despertar,
W:que esta noche, caballeros,
W:es noche de Navidad.
W:
W:De lejas tierras venimos,
W:en esta noche a cantar
W:a los amos de esta casa
W:gente de cristiandad.
W:
W:Dennos, por Dios, aguinaldo
W:dénnoslo por caridad,
W:que esta, caballeros,
W:es noche de Navidad.
K:Gm
|d>dB|c>ce|d2 d|c>cB|G>BG|A3|d>dB|c>ce|d2 d|c>cB|A>A^F|G2 z :||


